img/svg/facebook.svg

<svg width="16" height="16" viewBox="0 0 16 16" fill="none" xmlns="http://www.w3.org/2000/svg">
<path d="M11.8502 6.45H10.4502H9.9502V5.95V4.4V3.9H10.4502H11.5002C11.7752 3.9 12.0002 3.7 12.0002 3.4V0.75C12.0002 0.475 11.8002 0.25 11.5002 0.25H9.6752C7.7002 0.25 6.3252 1.65 6.3252 3.725V5.9V6.4H5.8252H4.1252C3.7752 6.4 3.4502 6.675 3.4502 7.075V8.875C3.4502 9.225 3.7252 9.55 4.1252 9.55H5.7752H6.2752V10.05V15.075C6.2752 15.425 6.5502 15.75 6.9502 15.75H9.3002C9.4502 15.75 9.5752 15.675 9.6752 15.575C9.7752 15.475 9.85019 15.3 9.85019 15.15V10.075V9.575H10.3752H11.5002C11.8252 9.575 12.0752 9.375 12.1252 9.075V9.05V9.025L12.4752 7.3C12.5002 7.125 12.4752 6.925 12.3252 6.725C12.2752 6.6 12.0502 6.475 11.8502 6.45Z" fill="white"/>
</svg>

<?xml version="1.0" encoding="utf-8"?><svg width="16" height="16" xmlns="http://www.w3.org/2000/svg" viewBox="0 0 16 16"><path d="M11.85 6.45h-1.9V3.9h1.55c.275 0 .5-.2.5-.5V.75c0-.275-.2-.5-.5-.5H9.675c-1.975 0-3.35 1.4-3.35 3.475V6.4h-2.2a.672.672 0 0 0-.675.675v1.8c0 .35.275.675.675.675h2.15v5.525c0 .35.275.675.675.675H9.3c.15 0 .275-.075.375-.175.1-.1.175-.275.175-.425V9.575h1.65c.325 0 .575-.2.625-.5v-.05l.35-1.725a.748.748 0 0 0-.15-.575c-.05-.125-.275-.25-.475-.275Z"/></svg>
